X:268
T:
R:polska
S:Efter Karl Odin Kaupe i Fröjel (1877).
O:Gotland, Fröjel
M:3/4
L:1/16
K:A
e2a2 gfed cAcd|e2a2 gfed d2c2|e2a2 gfed cdef|edcB B4 A4::
GAcA GAce edcd|dBGB GBdf edcB|GAcA GAce dcBA|dBGB GBdf edcB|
A2a2 gfed cABd|e2a2 gfed d2c2|A2a2 gfed cdef|edcB B4 A4:|

